!!!COM: Palestrina, Giovanni Perluigi da
!!!OPR: Missa Benedicta es
!!!OMD: Credo
!!!OTL: Crucifixus
**kern	**kern	**kern	**kern
*Itenor	*Icalto	*Icalto	*Icant
!Tenor	!Altus 2	!Altus 1	!Cantus
*clefGv2	*clefG2	*clefG2	*clefG2
*k[]	*k[]	*k[]	*k[]
*G:mix	*G:mix	*G:mix	*G:mix
*M4/2	*M4/2	*M4/2	*M4/2
=99	=99	=99	=99
0r	0r	1G	0r
.	.	2G	.
.	.	[2c	.
=100	=100	=100	=100
0r	1G	2c]	1r
.	.	2B	.
.	2G	2.e	[1g
.	[2c	.	.
.	.	4d	.
=101	=101	=101	=101
0r	2c]	2e	1g]
.	2B	2d	.
.	2.e	2.c	1g
.	4d	4B	.
=102	=102	=102	=102
0r	2e	2c	0a
.	1f	1d	.
.	4e	4c	.
.	4d	4B	.
=103	=103	=103	=103
1r	2e	4A	1a
.	.	4G	.
.	2f#	2A	.
1G	1g	4G	[1b
.	.	4A	.
.	.	4B	.
.	.	4c	.
=104	=104	=104	=104
2G	1r	4d	2b]
.	.	4B	.
1c	.	1e	2g
.	1G	.	[1g
2B	.	[2d	.
=105	=105	=105	=105
2.e	2G	2d]	1g]
.	1c	2c	.
4d	.	.	.
2e	.	2r	1g
2d	2B	2g	.
=106	=106	=106	=106
2.c	2.e	2a	0cc
.	.	1g	.
4B	4d	.	.
1A	2e	.	.
.	2c	2f#	.
=107	=107	=107	=107
0G	2d	1g	0b
.	2e	.	.
.	[1d	2r	.
.	.	2d	.
=108	=108	=108	=108
0r	1d]	2.f	1a
.	.	4g	.
.	1r	2a	2.cc
.	.	4A	.
.	.	4B	4b
=109	=109	=109	=109
0r	0r	4c	2a
.	.	4d	.
.	.	2.e	2g
.	.	.	2f
.	.	4d	.
.	.	[2d	2d
=110	=110	=110	=110
1A	1r	2d]	1e
.	.	2c#	.
2.B	2r	1d	[1d
.	2d	.	.
4c	.	.	.
=111	=111	=111	=111
2d	2.f	1r	1d]
4D	.	.	.
4E	4e	.	.
4F	2d	2r	1r
4G	.	.	.
[2A	2c	2A	.
=112	=112	=112	=112
4A]	2B	2.B	1r
4G	.	.	.
1G	2G	.	.
.	.	4c	.
.	1A	1d	2r
2F#	.	.	2a
=113	=113	=113	=113
1G	2G	0d	2.b
.	2d	.	.
.	.	.	4cc
[1D	2.f	.	2dd
.	.	.	2d
.	4e	.	.
=114	=114	=114	=114
1D]	0d	2r	2.f
.	.	2d	.
.	.	.	4g
[1D	.	2.f	2a
.	.	.	4d
.	.	4e	4e
=115	=115	=115	=115
2D]	2r	2d	4f
.	.	.	4g
2F	2A	2c	2.a
2G	2B	2B	.
.	.	.	4g
2E	2c#	2G	[2g
=116	=116	=116	=116
1D	0d	1A	2g]
.	.	.	2f#
1G	.	2G	1g
.	.	[2g	.
=117	=117	=117	=117
0d	1r	2g]	0a
.	.	4f#	.
.	.	4e	.
.	[1d	1f#	.
=118	=118	=118	=118
1G	1d]	2.g	1b
.	.	4f	.
1c	1e	4e	1cc
.	.	4d	.
.	.	[2c	.
=119	=119	=119	=119
1F	1f	2c]	1a
.	.	1d	.
1G	1d	.	1b
.	.	2B	.
=120	=120	=120	=120
2E	1e	1c	2g
2.A	.	.	2.cc
.	2c	[1A	.
4G	.	.	4b
4F	[2f	.	4a
4E	.	.	4g
=121	=121	=121	=121
1F	2f]	1A]	1a
.	4e	.	.
.	4d	.	.
1C	1e	[1c	1g
=122	=122	=122	=122
0G	0d	2c]	2r
.	.	4B	2g
.	.	4A	.
.	.	1B	2.g
.	.	.	4f
=123	=123	=123	=123
0r	2r	0r	2g
.	2d	.	2a
.	2.d	.	2.f
.	4c	.	4e
=124	=124	=124	=124
0r	2d	0r	2f
.	2e	.	2.g
.	2.c	.	.
.	.	.	4f
.	.	.	4e
.	4B	.	4d
=125	=125	=125	=125
0r	2c	1r	2e
.	2.d	.	2d
.	.	2r	2.dd
.	4c	.	.
.	4B	2d	.
.	4A	.	4cc
=126	=126	=126	=126
0r	2.G	2.d	4b
.	.	.	4a
.	.	.	1b
.	4A	4c	.
.	2B	2d	.
.	4c	2e	2g
.	4d	.	.
=127	=127	=127	=127
0r	4e	2.c	1g
.	4f	.	.
.	1g	.	.
.	.	4B	.
.	.	2c	1a
.	2f#	2d	.
=128	=128	=128	=128
0G	1g	4d	0b
.	.	4c	.
.	.	4B	.
.	.	4A	.
.	2d	2B	.
.	[2d	2G	.
=129	=129	=129	=129
2.G	4d]	2.B	0r
.	4c	.	.
.	2d	.	.
4F	.	4A	.
2G	2e	2B	.
2A	[2c	2c	.
=130	=130	=130	=130
2.F	4c]	2.A	0r
.	4B	.	.
.	2c	.	.
4E	.	4G	.
2F	2.d	2A	.
[2G	.	2B	.
.	4c	.	.
=131	=131	=131	=131
4G]	4B	0G	1r
4F	4A	.	.
4E	1d	.	.
4D	.	.	.
1E	.	.	1g
.	2c	.	.
=132	=132	=132	=132
2D	2f	0r	2a
2G	4e	.	2b
.	4d	.	.
2A	2c	.	2cc
2B	2d	.	4b
.	.	.	4a
=133	=133	=133	=133
2.c	1e	1r	2g
.	.	.	2.a
8B	.	.	.
8A	.	.	.
2G	1r	2r	.
.	.	.	4g
2B	.	2d	2g
=134	=134	=134	=134
1A	2r	2e	1cc
.	2c	2f	.
1G	2d	2.g	2.b
.	2e	.	.
.	.	8f	4cc
.	.	8e	.
=135	=135	=135	=135
0r	2.f	2d	2dd
.	.	2f	2.cc
.	8e	.	.
.	8d	.	.
.	2c	4e	.
.	.	4f	4b
.	2e	[2g	2g
=136	=136	=136	=136
2r	1d	2g]	1a
2D	.	2f	.
2E	2r	2e	2g
2F	2A	2d	2f
=137	=137	=137	=137
2G	2B	0r	1e
2A	2c	.	.
2B	2d	.	1r
2c	2e	.	.
=138	=138	=138	=138
2d	2f	0r	0r
4G	1g	.	.
4A	.	.	.
4B	.	.	.
4c	.	.	.
[2d	2f	.	.
=139	=139	=139	=139
2d]	1e	1A	1r
2c#	.	.	.
1d	1d	2B	2r
.	.	2B	2d
=140	=140	=140	=140
0r	0r	2c	2e
.	.	2d	2f
.	.	2e	2g
.	.	2f	2a
=141	=141	=141	=141
1r	0r	2g	2b
.	.	4c	1cc
.	.	4d	.
2r	.	4e	.
.	.	4f	.
2G	.	[2g	2b
=142	=142	=142	=142
2c	0r	2g]	1a
2d	.	2f#	.
2.e	.	2.g	[1g
4d	.	4f	.
=143	=143	=143	=143
2c	2r	2e	1g]
2B	2G	2d	.
2A	2c	2e	1r
2G	2d	2B	.
=144	=144	=144	=144
2C	2.e	1c	2r
2c	.	.	2g
.	4d	.	.
2A	2c	1r	2cc
2G	2B	.	2dd
=145	=145	=145	=145
2.c	4A	1r	2.ee
.	4B	.	.
.	4c	.	.
4B	4d	.	4dd
2A	1e	2r	2cc
2E	.	2G	2b
=146	=146	=146	=146
1F	2.A	2c	1a
.	.	2d	.
.	4B	.	.
2.C	1c	2.e	[1g
4D	.	4d	.
=147	=147	=147	=147
4E	0r	2c	1g]
4F	.	.	.
1G	.	2B	.
.	.	1A	2r
2F#	.	.	2a
=148	=148	=148	=148
1G	1d	1G	2.b
.	.	.	4g
1r	2.e	1r	2g
.	.	.	[2cc
.	4c	.	.
=149	=149	=149	=149
0r	2c	0r	2cc]
.	2g	.	2b
.	2f	.	2a
.	[2e	.	[2g
=150	=150	=150	=150
1r	4e]	0r	4g]
.	4d	.	4f
.	1d	.	4f
.	.	.	8e
.	.	.	8d
1A	.	.	1e
.	2c#	.	.
=151	=151	=151	=151
2.B	2d	2r	1d
.	2G	2d	.
4G	.	.	.
2G	2.g	2.e	1r
[2c	.	.	.
.	4e	4c	.
=152	=152	=152	=152
2c]	2e	2c	0r
2B	2d	2g	.
2A	2c	2f	.
[2G	2B	[2e	.
=153	=153	=153	=153
4G]	1A	4e]	0r
4F	.	4d	.
4F	.	1d	.
8E	.	.	.
8D	.	.	.
1E	2G	.	.
.	[2g	2c#	.
=154	=154	=154	=154
2D	2g]	1d	0a
1d	1f	.	.
.	.	1A	.
4c	4e	.	.
4B	4d	.	.
=155	=155	=155	=155
2c	2e	2r	1a
2d	2f#	2d	.
2G	1g	2d	1b
2G	.	2d	.
=156	=156	=156	=156
2.c	2r	1e	1.cc
.	2c	.	.
4B	.	.	.
2A	2.c	1f	.
2A	.	.	2cc
.	4d	.	.
=157	=157	=157	=157
0G	2e	1g	0b
.	2.d	.	.
.	.	2r	.
.	4c	.	.
.	4B	[2d	.
.	4A	.	.
=158	=158	=158	=158
2r	1G	2d]	2r
1G	.	2d	1b
.	2r	1d	.
2G	[2d	.	2b
=159	=159	=159	=159
1G	2d]	2G	1b
.	2d	1g	.
2D	1d	.	1a
[2d	.	2f	.
=160	=160	=160	=160
2d]	2G	1e	0r
2c	1g	.	.
2B	.	2d	.
2A	2f	2c	.
=161	=161	=161	=161
2G	2e	2B	0r
2F	1d	2A	.
1E	.	2G	.
.	2c#	[2g	.
=162	=162	=162	=162
1D	1d	2g]	2r
.	.	2f	1dd
1r	2r	1e	.
.	[2g	.	2cc
=163	=163	=163	=163
1r	2g]	2.d	2b
.	2f	.	2a
.	.	4A	.
2r	2e	2c	2g
[2d	2d	2d	2f
=164	=164	=164	=164
2d]	2r	1A	1e
2c	1a	.	.
1B	.	1d	2d
.	2g	.	[2dd
=165	=165	=165	=165
1A	2f	2r	2dd]
.	2.e	2A	2cc
2G	.	4B	2b
.	4d	4G	.
2F	[2d	2A	[2a
=166	=166	=166	=166
1E	2d]	2B	4a]
.	.	.	4g
.	2c#	4A	1g
.	.	4G	.
1D	1d	1A	.
.	.	.	2f#
=167	=167	=167	=167
0G	0d	0G	0g
*-	*-	*-	*-
!!!CDT: 1525/^1526/-1594/2/2
!!!OCY: Italia
!!!AGN: Mass (Parody)
!!!AST: renaissance, vocal
!!!ASW: Motet 1520 (Josquin)
!!!PWK: Masses, Book 11
!!!RNB: Cadence finals: D
!!!YOR: Le Opere Complete, v. 28, p. 222
!!!YOO: Rome, Italy: Fratelli Scalera
!!!END: 1992//
!!!EED: John Miller
!!!YEC: Copyright 2000, John Miller
!!!YEN: United States of America
!!!YEM: Rights to all derivative electronic formats reserved.
!!!YEM: Refer to licensing agreement for further details.
!!!YEM: This file must be accompanied by the licensing agreement.
!!!YEM: A copy of the licensing agreement may be found at http://www.music-cog.ohio-state.edu/HumdrumDatabases/Palestrina/license.txt
!!!EMD: converted to Humdrum by Bret Aarden
